; generated by Slic3r 1.3.1-dev on 2021-02-10 at 23:08:15

; external perimeters extrusion width = 0.48mm (1.38mm^3/s)
; perimeters extrusion width = 0.48mm (1.83mm^3/s)
; infill extrusion width = 0.48mm (2.75mm^3/s)
; solid infill extrusion width = 0.48mm (1.60mm^3/s)
; top infill extrusion width = 0.48mm (1.38mm^3/s)

M107
M82
M190 S50
M104 S210

G28 

G90
G1 Z5 F6000
G1 X120 Y-16
G1 Z-1
G92 E0

M109 S210

G1 E50 F3600
G92 E0
G1 E10 F130

G92 E0
G1 E-2 F3600
G1 X172 F1800
G1 Z5 F12000
G1 Y0

M120 P20 S50



; Filament gcode

G21 ; set units to millimeters
G90 ; use absolute coordinates
M82 ; use absolute distances for extrusion
G92 E0
G1 Z0.100 F9000.000
G1 E-1.00000 F2400.00000
G92 E0
G1 X14.018 Y4.917 F9000.000
G1 E1.00000 F2400.00000
G1 F1500
G1 X15.109 Y3.704 E1.03110
G1 X17.000 Y3.124 E1.06881
G1 X253.000 Y3.124 E5.56788
G1 X254.583 Y3.518 E5.59897
G1 X255.796 Y4.609 E5.63007
G1 X256.376 Y6.500 E5.66778
G1 X256.376 Y263.500 E10.56720
G1 X255.982 Y265.083 E10.59829
G1 X254.891 Y266.296 E10.62939
G1 X253.000 Y266.876 E10.66710
G1 X17.000 Y266.876 E15.16617
G1 X15.417 Y266.482 E15.19727
G1 X14.204 Y265.391 E15.22836
G1 X13.624 Y263.500 E15.26607
G1 X13.624 Y6.500 E20.16549
G1 X14.004 Y4.975 E20.19544
G1 X14.476 Y5.037 F9000.000
G1 F1500
G1 X15.550 Y3.969 E20.22431
G1 X17.000 Y3.583 E20.25293
G1 X253.000 Y3.583 E24.75200
G1 X254.463 Y3.976 E24.78087
G1 X255.531 Y5.050 E24.80974
G1 X255.917 Y6.500 E24.83836
G1 X255.917 Y263.500 E29.73777
G1 X255.524 Y264.963 E29.76665
G1 X254.450 Y266.031 E29.79552
G1 X253.000 Y266.417 E29.82413
G1 X17.000 Y266.417 E34.32321
G1 X15.537 Y266.024 E34.35208
G1 X14.469 Y264.951 E34.38095
G1 X14.083 Y263.500 E34.40956
G1 X14.083 Y6.500 E39.30898
G1 X14.460 Y5.095 E39.33671
G1 X14.933 Y5.168 F9000.000
G1 F1500
G1 X15.984 Y4.261 E39.36317
G1 X17.000 Y4.041 E39.38299
G1 X253.000 Y4.041 E43.88206
G1 X254.332 Y4.433 E43.90852
G1 X255.239 Y5.484 E43.93499
G1 X255.459 Y6.500 E43.95480
G1 X255.459 Y263.500 E48.85422
G1 X255.067 Y264.832 E48.88068
G1 X254.016 Y265.739 E48.90714
G1 X253.000 Y265.959 E48.92696
G1 X17.000 Y265.959 E53.42603
G1 X15.668 Y265.567 E53.45250
G1 X14.761 Y264.516 E53.47896
G1 X14.541 Y263.500 E53.49878
G1 X14.541 Y6.500 E58.39819
G1 X14.916 Y5.226 E58.42351
G1 E57.42351 F2400.00000
G92 E0
G1 X236.616 Y22.884 F9000.000
G1 E1.00000 F2400.00000
G1 F1500
G1 X18.616 Y22.884 E5.15592
G1 X18.616 Y8.116 E5.43747
G1 X251.384 Y8.116 E9.87495
G1 X251.384 Y261.884 E14.71276
G1 X18.616 Y261.884 E19.15024
G1 X18.616 Y247.116 E19.43179
G1 X236.616 Y247.116 E23.58771
G1 X236.616 Y22.944 E27.86128
G1 X236.157 Y23.343 F9000.000
G1 F1500
G1 X18.157 Y23.343 E32.01721
G1 X18.157 Y7.657 E32.31624
G1 X251.843 Y7.657 E36.77120
G1 X251.843 Y262.343 E41.62649
G1 X18.157 Y262.343 E46.08145
G1 X18.157 Y246.657 E46.38048
G1 X236.157 Y246.657 E50.53641
G1 X236.157 Y23.403 E54.79250
G1 X235.699 Y23.801 F9000.000
G1 F1500
G1 X17.699 Y23.801 E58.94842
G1 X17.699 Y7.199 E59.26494
G1 X252.301 Y7.199 E63.73738
G1 X252.301 Y262.802 E68.61016
G1 X17.699 Y262.802 E73.08260
G1 X17.699 Y246.199 E73.39911
G1 X235.699 Y246.199 E77.55504
G1 X235.699 Y23.861 E81.79364
G1 X235.240 Y24.260 F9000.000
G1 F1500
G1 X17.240 Y24.260 E85.94957
G1 X17.240 Y6.740 E86.28357
G1 X252.760 Y6.740 E90.77349
G1 X252.760 Y263.260 E95.66375
G1 X17.240 Y263.260 E100.15368
G1 X17.240 Y245.740 E100.48768
G1 X235.240 Y245.740 E104.64360
G1 X235.240 Y24.320 E108.86472
G1 X235.343 Y23.873 F9000.000
G1 E107.86472 F2400.00000
G92 E0
G1 X19.075 Y8.643 F9000.000
G1 E1.00000 F2400.00000
G1 F1500
G1 X19.074 Y22.495 E1.26440
G1 X19.075 Y8.505 E1.53142
G1 X19.534 Y8.505 E1.54018
G1 X19.534 Y22.495 E1.80721
G1 X19.993 Y22.495 E1.81597
G1 X19.993 Y8.505 E2.08299
G1 X20.452 Y8.505 E2.09175
G1 X20.452 Y22.495 E2.35878
G1 X20.911 Y22.495 E2.36754
G1 X20.911 Y8.505 E2.63456
G1 X21.370 Y8.505 E2.64333
G1 X21.370 Y22.495 E2.91035
G1 X21.829 Y22.495 E2.91911
G1 X21.829 Y8.505 E3.18613
G1 X22.289 Y8.505 E3.19490
G1 X22.289 Y22.495 E3.46192
G1 X22.748 Y22.495 E3.47068
G1 X22.748 Y8.505 E3.73771
G1 X23.207 Y8.505 E3.74647
G1 X23.207 Y22.495 E4.01349
G1 X23.666 Y22.495 E4.02226
G1 X23.666 Y8.505 E4.28928
G1 X24.125 Y8.505 E4.29804
G1 X24.125 Y22.495 E4.56506
G1 X24.584 Y22.495 E4.57383
G1 X24.584 Y8.505 E4.84085
G1 X25.043 Y8.505 E4.84961
G1 X25.043 Y22.495 E5.11664
G1 X25.502 Y22.495 E5.12540
G1 X25.502 Y8.505 E5.39242
G1 X25.961 Y8.505 E5.40119
G1 X25.961 Y22.495 E5.66821
G1 X26.421 Y22.495 E5.67697
G1 X26.421 Y8.505 E5.94399
G1 X26.880 Y8.505 E5.95276
G1 X26.880 Y22.495 E6.21978
G1 X27.339 Y22.495 E6.22854
G1 X27.339 Y8.505 E6.49557
G1 X27.798 Y8.505 E6.50433
G1 X27.798 Y22.495 E6.77135
G1 X28.257 Y22.495 E6.78011
G1 X28.257 Y8.505 E7.04714
G1 X28.716 Y8.505 E7.05590
G1 X28.716 Y22.495 E7.32292
G1 X29.175 Y22.495 E7.33169
G1 X29.175 Y8.505 E7.59871
G1 X29.634 Y8.505 E7.60747
G1 X29.634 Y22.495 E7.87450
G1 X30.093 Y22.495 E7.88326
G1 X30.093 Y8.505 E8.15028
G1 X30.553 Y8.505 E8.15904
G1 X30.553 Y22.495 E8.42607
G1 X31.012 Y22.495 E8.43483
G1 X31.012 Y8.505 E8.70185
G1 X31.471 Y8.505 E8.71062
G1 X31.471 Y22.495 E8.97764
G1 X31.930 Y22.495 E8.98640
G1 X31.930 Y8.505 E9.25342
G1 X32.389 Y8.505 E9.26219
G1 X32.389 Y22.495 E9.52921
G1 X32.848 Y22.495 E9.53797
G1 X32.848 Y8.505 E9.80500
G1 X33.307 Y8.505 E9.81376
G1 X33.307 Y22.495 E10.08078
G1 X33.766 Y22.495 E10.08955
G1 X33.766 Y8.505 E10.35657
G1 X34.225 Y8.505 E10.36533
G1 X34.225 Y22.495 E10.63235
G1 X34.685 Y22.495 E10.64112
G1 X34.685 Y8.505 E10.90814
G1 X35.144 Y8.505 E10.91690
G1 X35.144 Y22.495 E11.18393
G1 X35.603 Y22.495 E11.19269
G1 X35.603 Y8.505 E11.45971
G1 X36.062 Y8.505 E11.46848
G1 X36.062 Y22.495 E11.73550
G1 X36.521 Y22.495 E11.74426
G1 X36.521 Y8.505 E12.01128
G1 X36.980 Y8.505 E12.02005
G1 X36.980 Y22.495 E12.28707
G1 X37.439 Y22.495 E12.29583
G1 X37.439 Y8.505 E12.56286
G1 X37.898 Y8.505 E12.57162
G1 X37.898 Y22.495 E12.83864
G1 X38.357 Y22.495 E12.84740
G1 X38.357 Y8.505 E13.11443
G1 X38.817 Y8.505 E13.12319
G1 X38.817 Y22.495 E13.39021
G1 X39.276 Y22.495 E13.39898
G1 X39.276 Y8.505 E13.66600
G1 X39.735 Y8.505 E13.67476
G1 X39.735 Y22.495 E13.94179
G1 X40.194 Y22.495 E13.95055
G1 X40.194 Y8.505 E14.21757
G1 X40.653 Y8.505 E14.22633
G1 X40.653 Y22.495 E14.49336
G1 X41.112 Y22.495 E14.50212
G1 X41.112 Y8.505 E14.76914
G1 X41.571 Y8.505 E14.77791
G1 X41.571 Y22.495 E15.04493
G1 X42.030 Y22.495 E15.05369
G1 X42.030 Y8.505 E15.32071
G1 X42.489 Y8.505 E15.32948
G1 X42.489 Y22.495 E15.59650
G1 X42.949 Y22.495 E15.60526
G1 X42.949 Y8.505 E15.87229
G1 X43.408 Y8.505 E15.88105
G1 X43.408 Y22.495 E16.14807
G1 X43.867 Y22.495 E16.15684
G1 X43.867 Y8.505 E16.42386
G1 X44.326 Y8.505 E16.43262
G1 X44.326 Y22.495 E16.69964
G1 X44.785 Y22.495 E16.70841
G1 X44.785 Y8.505 E16.97543
G1 X45.244 Y8.505 E16.98419
G1 X45.244 Y22.495 E17.25122
G1 X45.703 Y22.495 E17.25998
G1 X45.703 Y8.505 E17.52700
G1 X46.162 Y8.505 E17.53577
G1 X46.162 Y22.495 E17.80279
G1 X46.621 Y22.495 E17.81155
G1 X46.621 Y8.505 E18.07857
G1 X47.081 Y8.505 E18.08734
G1 X47.081 Y22.495 E18.35436
G1 X47.540 Y22.495 E18.36312
G1 X47.540 Y8.505 E18.63015
G1 X47.999 Y8.505 E18.63891
G1 X47.999 Y22.495 E18.90593
G1 X48.458 Y22.495 E18.91469
G1 X48.458 Y8.505 E19.18172
G1 X48.917 Y8.505 E19.19048
G1 X48.917 Y22.495 E19.45750
G1 X49.376 Y22.495 E19.46627
G1 X49.376 Y8.505 E19.73329
G1 X49.835 Y8.505 E19.74205
G1 X49.835 Y22.495 E20.00907
G1 X50.294 Y22.495 E20.01784
G1 X50.294 Y8.505 E20.28486
G1 X50.753 Y8.505 E20.29362
G1 X50.753 Y22.495 E20.56065
G1 X51.213 Y22.495 E20.56941
G1 X51.213 Y8.505 E20.83643
G1 X51.672 Y8.505 E20.84520
G1 X51.672 Y22.495 E21.11222
G1 X52.131 Y22.495 E21.12098
G1 X52.131 Y8.505 E21.38800
G1 X52.590 Y8.505 E21.39677
G1 X52.590 Y22.495 E21.66379
G1 X53.049 Y22.495 E21.67255
G1 X53.049 Y8.505 E21.93958
G1 X53.508 Y8.505 E21.94834
G1 X53.508 Y22.495 E22.21536
G1 X53.967 Y22.495 E22.22413
G1 X53.967 Y8.505 E22.49115
G1 X54.426 Y8.505 E22.49991
G1 X54.426 Y22.495 E22.76693
G1 X54.885 Y22.495 E22.77570
G1 X54.885 Y8.505 E23.04272
G1 X55.345 Y8.505 E23.05148
G1 X55.345 Y22.495 E23.31851
G1 X55.804 Y22.495 E23.32727
G1 X55.804 Y8.505 E23.59429
G1 X56.263 Y8.505 E23.60306
G1 X56.263 Y22.495 E23.87008
G1 X56.722 Y22.495 E23.87884
G1 X56.722 Y8.505 E24.14586
G1 X57.181 Y8.505 E24.15463
G1 X57.181 Y22.495 E24.42165
G1 X57.640 Y22.495 E24.43041
G1 X57.640 Y8.505 E24.69744
G1 X58.099 Y8.505 E24.70620
G1 X58.099 Y22.495 E24.97322
G1 X58.558 Y22.495 E24.98198
G1 X58.558 Y8.505 E25.24901
G1 X59.017 Y8.505 E25.25777
G1 X59.017 Y22.495 E25.52479
G1 X59.477 Y22.495 E25.53356
G1 X59.477 Y8.505 E25.80058
G1 X59.936 Y8.505 E25.80934
G1 X59.936 Y22.495 E26.07636
G1 X60.395 Y22.495 E26.08513
G1 X60.395 Y8.505 E26.35215
G1 X60.854 Y8.505 E26.36091
G1 X60.854 Y22.495 E26.62794
G1 X61.313 Y22.495 E26.63670
G1 X61.313 Y8.505 E26.90372
G1 X61.772 Y8.505 E26.91249
G1 X61.772 Y22.495 E27.17951
G1 X62.231 Y22.495 E27.18827
G1 X62.231 Y8.505 E27.45529
G1 X62.690 Y8.505 E27.46406
G1 X62.690 Y22.495 E27.73108
G1 X63.149 Y22.495 E27.73984
G1 X63.149 Y8.505 E28.00687
G1 X63.608 Y8.505 E28.01563
G1 X63.608 Y22.495 E28.28265
G1 X64.068 Y22.495 E28.29142
G1 X64.068 Y8.505 E28.55844
G1 X64.527 Y8.505 E28.56720
G1 X64.527 Y22.495 E28.83422
G1 X64.986 Y22.495 E28.84299
G1 X64.986 Y8.505 E29.11001
G1 X65.445 Y8.505 E29.11877
G1 X65.445 Y22.495 E29.38580
G1 X65.904 Y22.495 E29.39456
G1 X65.904 Y8.505 E29.66158
G1 X66.363 Y8.505 E29.67034
G1 X66.363 Y22.495 E29.93737
G1 X66.822 Y22.495 E29.94613
G1 X66.822 Y8.505 E30.21315
G1 X67.281 Y8.505 E30.22192
G1 X67.281 Y22.495 E30.48894
G1 X67.740 Y22.495 E30.49770
G1 X67.740 Y8.505 E30.76473
G1 X68.200 Y8.505 E30.77349
G1 X68.200 Y22.495 E31.04051
G1 X68.659 Y22.495 E31.04927
G1 X68.659 Y8.505 E31.31630
G1 X69.118 Y8.505 E31.32506
G1 X69.118 Y22.495 E31.59208
G1 X69.577 Y22.495 E31.60085
G1 X69.577 Y8.505 E31.86787
G1 X70.036 Y8.505 E31.87663
G1 X70.036 Y22.495 E32.14365
G1 X70.495 Y22.495 E32.15242
G1 X70.495 Y8.505 E32.41944
G1 X70.954 Y8.505 E32.42820
G1 X70.954 Y22.495 E32.69523
G1 X71.413 Y22.495 E32.70399
G1 X71.413 Y8.505 E32.97101
G1 X71.872 Y8.505 E32.97978
G1 X71.872 Y22.495 E33.24680
G1 X72.332 Y22.495 E33.25556
G1 X72.332 Y8.505 E33.52258
G1 X72.791 Y8.505 E33.53135
G1 X72.791 Y22.495 E33.79837
G1 X73.250 Y22.495 E33.80713
G1 X73.250 Y8.505 E34.07416
G1 X73.709 Y8.505 E34.08292
G1 X73.709 Y22.495 E34.34994
G1 X74.168 Y22.495 E34.35871
G1 X74.168 Y8.505 E34.62573
G1 X74.627 Y8.505 E34.63449
G1 X74.627 Y22.495 E34.90151
G1 X75.086 Y22.495 E34.91028
G1 X75.086 Y8.505 E35.17730
G1 X75.545 Y8.505 E35.18606
G1 X75.545 Y22.495 E35.45309
G1 X76.004 Y22.495 E35.46185
G1 X76.004 Y8.505 E35.72887
G1 X76.464 Y8.505 E35.73763
G1 X76.464 Y22.495 E36.00466
G1 X76.923 Y22.495 E36.01342
G1 X76.923 Y8.505 E36.28044
G1 X77.382 Y8.505 E36.28921
G1 X77.382 Y22.495 E36.55623
G1 X77.841 Y22.495 E36.56499
G1 X77.841 Y8.505 E36.83201
G1 X78.300 Y8.505 E36.84078
G1 X78.300 Y22.495 E37.10780
G1 X78.759 Y22.495 E37.11656
G1 X78.759 Y8.505 E37.38359
G1 X79.218 Y8.505 E37.39235
G1 X79.218 Y22.495 E37.65937
G1 X79.677 Y22.495 E37.66814
G1 X79.677 Y8.505 E37.93516
G1 X80.136 Y8.505 E37.94392
G1 X80.136 Y22.495 E38.21094
G1 X80.596 Y22.495 E38.21971
G1 X80.596 Y8.505 E38.48673
G1 X81.055 Y8.505 E38.49549
G1 X81.055 Y22.495 E38.76252
G1 X81.514 Y22.495 E38.77128
G1 X81.514 Y8.505 E39.03830
G1 X81.973 Y8.505 E39.04707
G1 X81.973 Y22.495 E39.31409
G1 X82.432 Y22.495 E39.32285
G1 X82.432 Y8.505 E39.58987
G1 X82.891 Y8.505 E39.59864
G1 X82.891 Y22.495 E39.86566
G1 X83.350 Y22.495 E39.87442
G1 X83.350 Y8.505 E40.14145
G1 X83.809 Y8.505 E40.15021
G1 X83.809 Y22.495 E40.41723
G1 X84.268 Y22.495 E40.42600
G1 X84.268 Y8.505 E40.69302
G1 X84.728 Y8.505 E40.70178
G1 X84.728 Y22.495 E40.96880
G1 X85.187 Y22.495 E40.97757
G1 X85.187 Y8.505 E41.24459
G1 X85.646 Y8.505 E41.25335
G1 X85.646 Y22.495 E41.52038
G1 X86.105 Y22.495 E41.52914
G1 X86.105 Y8.505 E41.79616
G1 X86.564 Y8.505 E41.80492
G1 X86.564 Y22.495 E42.07195
G1 X87.023 Y22.495 E42.08071
G1 X87.023 Y8.505 E42.34773
G1 X87.482 Y8.505 E42.35650
G1 X87.482 Y22.495 E42.62352
G1 X87.941 Y22.495 E42.63228
G1 X87.941 Y8.505 E42.89930
G1 X88.400 Y8.505 E42.90807
G1 X88.400 Y22.495 E43.17509
G1 X88.860 Y22.495 E43.18385
G1 X88.860 Y8.505 E43.45088
G1 X89.319 Y8.505 E43.45964
G1 X89.319 Y22.495 E43.72666
G1 X89.778 Y22.495 E43.73543
G1 X89.778 Y8.505 E44.00245
G1 X90.237 Y8.505 E44.01121
G1 X90.237 Y22.495 E44.27823
G1 X90.696 Y22.495 E44.28700
G1 X90.696 Y8.505 E44.55402
G1 X91.155 Y8.505 E44.56278
G1 X91.155 Y22.495 E44.82981
G1 X91.614 Y22.495 E44.83857
G1 X91.614 Y8.505 E45.10559
G1 X92.073 Y8.505 E45.11436
G1 X92.073 Y22.495 E45.38138
G1 X92.532 Y22.495 E45.39014
G1 X92.532 Y8.505 E45.65716
G1 X92.992 Y8.505 E45.66593
G1 X92.992 Y22.495 E45.93295
G1 X93.451 Y22.495 E45.94171
G1 X93.451 Y8.505 E46.20874
G1 X93.910 Y8.505 E46.21750
G1 X93.910 Y22.495 E46.48452
G1 X94.369 Y22.495 E46.49328
G1 X94.369 Y8.505 E46.76031
G1 X94.828 Y8.505 E46.76907
G1 X94.828 Y22.495 E47.03609
G1 X95.287 Y22.495 E47.04486
G1 X95.287 Y8.505 E47.31188
G1 X95.746 Y8.505 E47.32064
G1 X95.746 Y22.495 E47.58767
G1 X96.205 Y22.495 E47.59643
G1 X96.205 Y8.505 E47.86345
G1 X96.664 Y8.505 E47.87221
G1 X96.664 Y22.495 E48.13924
G1 X97.124 Y22.495 E48.14800
G1 X97.124 Y8.505 E48.41502
G1 X97.583 Y8.505 E48.42379
G1 X97.583 Y22.495 E48.69081
G1 X98.042 Y22.495 E48.69957
G1 X98.042 Y8.505 E48.96659
G1 X98.501 Y8.505 E48.97536
G1 X98.501 Y22.495 E49.24238
G1 X98.960 Y22.495 E49.25114
G1 X98.960 Y8.505 E49.51817
G1 X99.419 Y8.505 E49.52693
G1 X99.419 Y22.495 E49.79395
G1 X99.878 Y22.495 E49.80272
G1 X99.878 Y8.505 E50.06974
G1 X100.337 Y8.505 E50.07850
G1 X100.337 Y22.495 E50.34552
G1 X100.796 Y22.495 E50.35429
G1 X100.796 Y8.505 E50.62131
G1 X101.256 Y8.505 E50.63007
G1 X101.256 Y22.495 E50.89710
G1 X101.715 Y22.495 E50.90586
G1 X101.715 Y8.505 E51.17288
G1 X102.174 Y8.505 E51.18165
G1 X102.174 Y22.495 E51.44867
G1 X102.633 Y22.495 E51.45743
G1 X102.633 Y8.505 E51.72445
G1 X103.092 Y8.505 E51.73322
G1 X103.092 Y22.495 E52.00024
G1 X103.551 Y22.495 E52.00900
G1 X103.551 Y8.505 E52.27603
G1 X104.010 Y8.505 E52.28479
G1 X104.010 Y22.495 E52.55181
G1 X104.469 Y22.495 E52.56057
G1 X104.469 Y8.505 E52.82760
G1 X104.928 Y8.505 E52.83636
G1 X104.928 Y22.495 E53.10338
G1 X105.388 Y22.495 E53.11215
G1 X105.388 Y8.505 E53.37917
G1 X105.847 Y8.505 E53.38793
G1 X105.847 Y22.495 E53.65496
G1 X106.306 Y22.495 E53.66372
G1 X106.306 Y8.505 E53.93074
G1 X106.765 Y8.505 E53.93950
G1 X106.765 Y22.495 E54.20653
G1 X107.224 Y22.495 E54.21529
G1 X107.224 Y8.505 E54.48231
G1 X107.683 Y8.505 E54.49108
G1 X107.683 Y22.495 E54.75810
G1 X108.142 Y22.495 E54.76686
G1 X108.142 Y8.505 E55.03388
G1 X108.601 Y8.505 E55.04265
G1 X108.601 Y22.495 E55.30967
G1 X109.060 Y22.495 E55.31843
G1 X109.060 Y8.505 E55.58546
G1 X109.520 Y8.505 E55.59422
G1 X109.520 Y22.495 E55.86124
G1 X109.979 Y22.495 E55.87001
G1 X109.979 Y8.505 E56.13703
G1 X110.438 Y8.505 E56.14579
G1 X110.438 Y22.495 E56.41281
G1 X110.897 Y22.495 E56.42158
G1 X110.897 Y8.505 E56.68860
G1 X111.356 Y8.505 E56.69736
G1 X111.356 Y22.495 E56.96439
G1 X111.815 Y22.495 E56.97315
G1 X111.815 Y8.505 E57.24017
G1 X112.274 Y8.505 E57.24894
G1 X112.274 Y22.495 E57.51596
G1 X112.733 Y22.495 E57.52472
G1 X112.733 Y8.505 E57.79174
G1 X113.192 Y8.505 E57.80051
G1 X113.192 Y22.495 E58.06753
G1 X113.652 Y22.495 E58.07629
G1 X113.652 Y8.505 E58.34332
G1 X114.111 Y8.505 E58.35208
G1 X114.111 Y22.495 E58.61910
G1 X114.570 Y22.495 E58.62786
G1 X114.570 Y8.505 E58.89489
G1 X115.029 Y8.505 E58.90365
G1 X115.029 Y22.495 E59.17067
G1 X115.488 Y22.495 E59.17944
G1 X115.488 Y8.505 E59.44646
G1 X115.947 Y8.505 E59.45522
G1 X115.947 Y22.495 E59.72224
G1 X116.406 Y22.495 E59.73101
G1 X116.406 Y8.505 E59.99803
G1 X116.865 Y8.505 E60.00679
G1 X116.865 Y22.495 E60.27382
G1 X117.324 Y22.495 E60.28258
G1 X117.324 Y8.505 E60.54960
G1 X117.784 Y8.505 E60.55837
G1 X117.784 Y22.495 E60.82539
G1 X118.243 Y22.495 E60.83415
G1 X118.243 Y8.505 E61.10117
G1 X118.702 Y8.505 E61.10994
G1 X118.702 Y22.495 E61.37696
