; generated by Slic3r 1.3.1-dev on 2021-02-10 at 23:13:39

; external perimeters extrusion width = 0.48mm (3.50mm^3/s)
; perimeters extrusion width = 0.48mm (1.75mm^3/s)
; infill extrusion width = 0.48mm (3.50mm^3/s)
; solid infill extrusion width = 0.48mm (2.62mm^3/s)
; top infill extrusion width = 0.48mm (2.62mm^3/s)

M107
M82
M190 S50
M104 S210

G28 

G90
G1 Z5 F6000
G1 X120 Y-16
G1 Z-1
G92 E0

M109 S210

G1 E50 F3600
G92 E0
G1 E10 F130

G92 E0
G1 E-2 F3600
G1 X172 F1800
G1 Z5 F12000
G1 Y0

M120 P20 S50



; Filament gcode

G21 ; set units to millimeters
G90 ; use absolute coordinates
M82 ; use absolute distances for extrusion
G92 E0
G1 Z0.350 F9000.000
G1 E-1.00000 F2400.00000
G92 E0
G1 X14.987 Y5.185 F9000.000
G1 E1.00000 F2400.00000
G1 F1500
G1 X16.034 Y4.298 E1.08087
G1 X17.000 Y4.095 E1.13900
G1 X253.000 Y4.095 E15.04334
G1 X254.315 Y4.487 E15.12421
G1 X255.202 Y5.534 E15.20508
G1 X255.405 Y6.500 E15.26321
G1 X255.405 Y263.500 E30.40480
G1 X255.013 Y264.816 E30.48567
G1 X253.966 Y265.703 E30.56654
G1 X253.000 Y265.905 E30.62467
G1 X17.000 Y265.905 E44.52901
G1 X15.685 Y265.513 E44.60988
G1 X14.798 Y264.466 E44.69075
G1 X14.595 Y263.500 E44.74888
G1 X14.595 Y6.500 E59.89048
G1 X14.970 Y5.242 E59.96781
G1 E58.96781 F2400.00000
G92 E0
G1 X236.050 Y23.450 F9000.000
G1 E1.00000 F2400.00000
G1 F1500
G1 X18.050 Y23.450 E13.84384
G1 X18.050 Y7.550 E14.78064
G1 X251.950 Y7.550 E28.56129
G1 X251.950 Y262.450 E43.57918
G1 X18.050 Y262.450 E57.35982
G1 X18.050 Y246.550 E58.29663
G1 X236.050 Y246.550 E71.14047
G1 X236.050 Y23.510 E84.28122
G1 X235.645 Y23.855 F9000.000
G1 F1500
G1 X17.645 Y23.855 E97.12506
G1 X17.645 Y7.145 E98.10958
G1 X252.355 Y7.145 E111.93793
G1 X252.355 Y262.855 E127.00353
G1 X17.645 Y262.855 E140.83188
G1 X17.645 Y246.145 E141.81640
G1 X235.645 Y246.145 E154.66024
G1 X235.645 Y23.915 E167.75328
G1 X235.240 Y24.260 F9000.000
G1 F1500
G1 X17.240 Y24.260 E180.59712
G1 X17.240 Y6.740 E181.62935
G1 X252.760 Y6.740 E195.50541
G1 X252.760 Y263.260 E210.61872
G1 X17.240 Y263.260 E224.49478
G1 X17.240 Y245.740 E225.52701
G1 X235.240 Y245.740 E238.37085
G1 X235.240 Y24.320 E251.41618
G1 X235.343 Y23.873 F9000.000
G1 E250.41618 F2400.00000
G92 E0
G1 X18.498 Y7.912 F9000.000
G1 E1.00000 F2400.00000
G1 F1500
G1 X18.412 Y7.998 E1.00721
G1 X18.412 Y8.571 E1.04101
G1 X19.071 Y7.912 E1.09601
G1 X19.644 Y7.912 E1.12982
G1 X18.412 Y9.144 E1.23262
G1 X18.412 Y9.718 E1.26643
G1 X20.218 Y7.912 E1.41704
G1 X20.791 Y7.912 E1.45084
G1 X18.412 Y10.291 E1.64925
G1 X18.412 Y10.864 E1.68305
G1 X21.364 Y7.912 E1.92927
G1 X21.937 Y7.912 E1.96307
G1 X18.412 Y11.437 E2.25709
G1 X18.412 Y12.010 E2.29089
G1 X22.510 Y7.912 E2.63270
G1 X23.083 Y7.912 E2.66651
G1 X18.412 Y12.583 E3.05613
G1 X18.412 Y13.156 E3.08993
G1 X23.656 Y7.912 E3.52735
G1 X24.230 Y7.912 E3.56115
G1 X18.412 Y13.730 E4.04637
G1 X18.412 Y14.303 E4.08018
G1 X24.803 Y7.912 E4.61320
G1 X25.376 Y7.912 E4.64700
G1 X18.412 Y14.876 E5.22783
G1 X18.412 Y15.449 E5.26163
G1 X25.949 Y7.912 E5.89026
G1 X26.522 Y7.912 E5.92406
G1 X18.412 Y16.022 E6.60049
G1 X18.412 Y16.595 E6.63429
G1 X27.095 Y7.912 E7.35853
G1 X27.669 Y7.912 E7.39233
G1 X18.412 Y17.169 E8.16436
G1 X18.412 Y17.742 E8.19817
G1 X28.242 Y7.912 E9.01800
G1 X28.815 Y7.912 E9.05180
G1 X18.412 Y18.315 E9.91944
G1 X18.412 Y18.888 E9.95324
G1 X29.388 Y7.912 E10.86868
G1 X29.961 Y7.912 E10.90248
G1 X18.412 Y19.461 E11.86573
G1 X18.412 Y20.034 E11.89953
G1 X30.534 Y7.912 E12.91057
G1 X31.107 Y7.912 E12.94437
G1 X18.412 Y20.607 E14.00322
G1 X18.412 Y21.181 E14.03702
G1 X31.681 Y7.912 E15.14367
G1 X32.254 Y7.912 E15.17747
G1 X18.412 Y21.754 E16.33192
G1 X18.412 Y22.327 E16.36572
G1 X32.827 Y7.912 E17.56797
G1 X33.400 Y7.912 E17.60177
G1 X18.412 Y22.900 E18.85183
G1 X18.412 Y23.088 E18.86293
G1 X18.797 Y23.088 E18.88563
G1 X33.973 Y7.912 E20.15138
G1 X34.546 Y7.912 E20.18518
G1 X19.370 Y23.088 E21.45093
G1 X19.943 Y23.088 E21.48473
G1 X35.120 Y7.912 E22.75048
G1 X35.693 Y7.912 E22.78428
G1 X20.516 Y23.088 E24.05003
G1 X21.089 Y23.088 E24.08383
G1 X36.266 Y7.912 E25.34959
G1 X36.839 Y7.912 E25.38339
G1 X21.662 Y23.088 E26.64914
G1 X22.236 Y23.088 E26.68294
G1 X37.412 Y7.912 E27.94869
G1 X37.985 Y7.912 E27.98249
G1 X22.809 Y23.088 E29.24824
G1 X23.382 Y23.088 E29.28204
G1 X38.558 Y7.912 E30.54779
G1 X39.132 Y7.912 E30.58159
G1 X23.955 Y23.088 E31.84734
G1 X24.528 Y23.088 E31.88115
G1 X39.705 Y7.912 E33.14690
G1 X40.278 Y7.912 E33.18070
G1 X25.101 Y23.088 E34.44645
G1 X25.674 Y23.088 E34.48025
G1 X40.851 Y7.912 E35.74600
G1 X41.424 Y7.912 E35.77980
G1 X26.248 Y23.088 E37.04555
G1 X26.821 Y23.088 E37.07935
G1 X41.997 Y7.912 E38.34510
G1 X42.571 Y7.912 E38.37890
G1 X27.394 Y23.088 E39.64466
G1 X27.967 Y23.088 E39.67846
G1 X43.144 Y7.912 E40.94421
G1 X43.717 Y7.912 E40.97801
G1 X28.540 Y23.088 E42.24376
G1 X29.113 Y23.088 E42.27756
G1 X44.290 Y7.912 E43.54331
G1 X44.863 Y7.912 E43.57711
G1 X29.687 Y23.088 E44.84286
G1 X30.260 Y23.088 E44.87666
G1 X45.436 Y7.912 E46.14241
G1 X46.009 Y7.912 E46.17622
G1 X30.833 Y23.088 E47.44197
G1 X31.406 Y23.088 E47.47577
G1 X46.583 Y7.912 E48.74152
G1 X47.156 Y7.912 E48.77532
G1 X31.979 Y23.088 E50.04107
G1 X32.552 Y23.088 E50.07487
G1 X47.729 Y7.912 E51.34062
G1 X48.302 Y7.912 E51.37442
G1 X33.125 Y23.088 E52.64017
G1 X33.699 Y23.088 E52.67398
G1 X48.875 Y7.912 E53.93973
G1 X49.448 Y7.912 E53.97353
G1 X34.272 Y23.088 E55.23928
G1 X34.845 Y23.088 E55.27308
G1 X50.022 Y7.912 E56.53883
G1 X50.595 Y7.912 E56.57263
G1 X35.418 Y23.088 E57.83838
G1 X35.991 Y23.088 E57.87218
G1 X51.168 Y7.912 E59.13793
G1 X51.741 Y7.912 E59.17174
G1 X36.564 Y23.088 E60.43749
G1 X37.138 Y23.088 E60.47129
G1 X52.314 Y7.912 E61.73704
G1 X52.887 Y7.912 E61.77084
G1 X37.711 Y23.088 E63.03659
G1 X38.284 Y23.088 E63.07039
G1 X53.460 Y7.912 E64.33614
G1 X54.034 Y7.912 E64.36994
G1 X38.857 Y23.088 E65.63569
G1 X39.430 Y23.088 E65.66950
G1 X54.607 Y7.912 E66.93525
G1 X55.180 Y7.912 E66.96905
G1 X40.003 Y23.088 E68.23480
G1 X40.576 Y23.088 E68.26860
G1 X55.753 Y7.912 E69.53435
G1 X56.326 Y7.912 E69.56815
G1 X41.150 Y23.088 E70.83390
G1 X41.723 Y23.088 E70.86770
G1 X56.899 Y7.912 E72.13345
G1 X57.473 Y7.912 E72.16726
G1 X42.296 Y23.088 E73.43301
G1 X42.869 Y23.088 E73.46681
G1 X58.046 Y7.912 E74.73256
G1 X58.619 Y7.912 E74.76636
G1 X43.442 Y23.088 E76.03211
G1 X44.015 Y23.088 E76.06591
G1 X59.192 Y7.912 E77.33166
G1 X59.765 Y7.912 E77.36546
G1 X44.589 Y23.088 E78.63121
G1 X45.162 Y23.088 E78.66502
G1 X60.338 Y7.912 E79.93077
G1 X60.911 Y7.912 E79.96457
G1 X45.735 Y23.088 E81.23032
G1 X46.308 Y23.088 E81.26412
G1 X61.485 Y7.912 E82.52987
G1 X62.058 Y7.912 E82.56367
G1 X46.881 Y23.088 E83.82942
G1 X47.454 Y23.088 E83.86322
G1 X62.631 Y7.912 E85.12897
G1 X63.204 Y7.912 E85.16278
G1 X48.027 Y23.088 E86.42853
G1 X48.601 Y23.088 E86.46233
G1 X63.777 Y7.912 E87.72808
G1 X64.350 Y7.912 E87.76188
G1 X49.174 Y23.088 E89.02763
G1 X49.747 Y23.088 E89.06143
G1 X64.924 Y7.912 E90.32718
G1 X65.497 Y7.912 E90.36098
G1 X50.320 Y23.088 E91.62673
G1 X50.893 Y23.088 E91.66053
G1 X66.070 Y7.912 E92.92629
G1 X66.643 Y7.912 E92.96009
G1 X51.466 Y23.088 E94.22584
G1 X52.040 Y23.088 E94.25964
G1 X67.216 Y7.912 E95.52539
G1 X67.789 Y7.912 E95.55919
G1 X52.613 Y23.088 E96.82494
G1 X53.186 Y23.088 E96.85874
G1 X68.362 Y7.912 E98.12449
G1 X68.936 Y7.912 E98.15829
G1 X53.759 Y23.088 E99.42404
G1 X54.332 Y23.088 E99.45785
G1 X69.509 Y7.912 E100.72360
G1 X70.082 Y7.912 E100.75740
G1 X54.905 Y23.088 E102.02315
G1 X55.478 Y23.088 E102.05695
G1 X70.655 Y7.912 E103.32270
G1 X71.228 Y7.912 E103.35650
G1 X56.052 Y23.088 E104.62225
G1 X56.625 Y23.088 E104.65605
G1 X71.801 Y7.912 E105.92180
G1 X72.375 Y7.912 E105.95560
G1 X57.198 Y23.088 E107.22136
G1 X57.771 Y23.088 E107.25516
G1 X72.948 Y7.912 E108.52091
G1 X73.521 Y7.912 E108.55471
G1 X58.344 Y23.088 E109.82046
G1 X58.917 Y23.088 E109.85426
G1 X74.094 Y7.912 E111.12001
G1 X74.667 Y7.912 E111.15381
G1 X59.491 Y23.088 E112.41956
G1 X60.064 Y23.088 E112.45336
G1 X75.240 Y7.912 E113.71912
G1 X75.813 Y7.912 E113.75292
G1 X60.637 Y23.088 E115.01867
G1 X61.210 Y23.088 E115.05247
G1 X76.387 Y7.912 E116.31822
G1 X76.960 Y7.912 E116.35202
G1 X61.783 Y23.088 E117.61777
G1 X62.356 Y23.088 E117.65157
G1 X77.533 Y7.912 E118.91732
G1 X78.106 Y7.912 E118.95112
G1 X62.929 Y23.088 E120.21687
G1 X63.503 Y23.088 E120.25068
G1 X78.679 Y7.912 E121.51643
G1 X79.252 Y7.912 E121.55023
G1 X64.076 Y23.088 E122.81598
G1 X64.649 Y23.088 E122.84978
G1 X79.826 Y7.912 E124.11553
G1 X80.399 Y7.912 E124.14933
G1 X65.222 Y23.088 E125.41508
G1 X65.795 Y23.088 E125.44888
G1 X80.972 Y7.912 E126.71463
G1 X81.545 Y7.912 E126.74844
G1 X66.368 Y23.088 E128.01419
G1 X66.942 Y23.088 E128.04799
G1 X82.118 Y7.912 E129.31374
G1 X82.691 Y7.912 E129.34754
G1 X67.515 Y23.088 E130.61329
G1 X68.088 Y23.088 E130.64709
G1 X83.264 Y7.912 E131.91284
G1 X83.838 Y7.912 E131.94664
G1 X68.661 Y23.088 E133.21239
G1 X69.234 Y23.088 E133.24619
G1 X84.411 Y7.912 E134.51195
G1 X84.984 Y7.912 E134.54575
G1 X69.807 Y23.088 E135.81150
G1 X70.380 Y23.088 E135.84530
G1 X85.557 Y7.912 E137.11105
G1 X86.130 Y7.912 E137.14485
G1 X70.954 Y23.088 E138.41060
G1 X71.527 Y23.088 E138.44440
G1 X86.703 Y7.912 E139.71015
G1 X87.277 Y7.912 E139.74395
G1 X72.100 Y23.088 E141.00971
G1 X72.673 Y23.088 E141.04351
G1 X87.850 Y7.912 E142.30926
G1 X88.423 Y7.912 E142.34306
G1 X73.246 Y23.088 E143.60881
G1 X73.819 Y23.088 E143.64261
G1 X88.996 Y7.912 E144.90836
G1 X89.569 Y7.912 E144.94216
G1 X74.393 Y23.088 E146.20791
G1 X74.966 Y23.088 E146.24171
G1 X90.142 Y7.912 E147.50747
G1 X90.716 Y7.912 E147.54127
G1 X75.539 Y23.088 E148.80702
G1 X76.112 Y23.088 E148.84082
G1 X91.289 Y7.912 E150.10657
G1 X91.862 Y7.912 E150.14037
G1 X76.685 Y23.088 E151.40612
G1 X77.258 Y23.088 E151.43992
G1 X92.435 Y7.912 E152.70567
G1 X93.008 Y7.912 E152.73947
G1 X77.832 Y23.088 E154.00522
G1 X78.405 Y23.088 E154.03903
G1 X93.581 Y7.912 E155.30478
G1 X94.154 Y7.912 E155.33858
G1 X78.978 Y23.088 E156.60433
G1 X79.551 Y23.088 E156.63813
G1 X94.728 Y7.912 E157.90388
G1 X95.301 Y7.912 E157.93768
G1 X80.124 Y23.088 E159.20343
G1 X80.697 Y23.088 E159.23723
G1 X95.874 Y7.912 E160.50298
G1 X96.447 Y7.912 E160.53678
G1 X81.270 Y23.088 E161.80254
G1 X81.844 Y23.088 E161.83634
G1 X97.020 Y7.912 E163.10209
G1 X97.593 Y7.912 E163.13589
G1 X82.417 Y23.088 E164.40164
G1 X82.990 Y23.088 E164.43544
G1 X98.167 Y7.912 E165.70119
G1 X98.740 Y7.912 E165.73499
G1 X83.563 Y23.088 E167.00074
G1 X84.136 Y23.088 E167.03454
G1 X99.313 Y7.912 E168.30030
G1 X99.886 Y7.912 E168.33410
G1 X84.709 Y23.088 E169.59985
G1 X85.283 Y23.088 E169.63365
G1 X100.459 Y7.912 E170.89940
G1 X101.032 Y7.912 E170.93320
G1 X85.856 Y23.088 E172.19895
G1 X86.429 Y23.088 E172.23275
G1 X101.605 Y7.912 E173.49850
G1 X102.179 Y7.912 E173.53230
G1 X87.002 Y23.088 E174.79805
G1 X87.575 Y23.088 E174.83185
G1 X102.752 Y7.912 E176.09761
G1 X103.325 Y7.912 E176.13141
G1 X88.148 Y23.088 E177.39716
G1 X88.721 Y23.088 E177.43096
G1 X103.898 Y7.912 E178.69671
G1 X104.471 Y7.912 E178.73051
G1 X89.295 Y23.088 E179.99626
G1 X89.868 Y23.088 E180.03006
G1 X105.044 Y7.912 E181.29581
G1 X105.618 Y7.912 E181.32961
G1 X90.441 Y23.088 E182.59536
G1 X91.014 Y23.088 E182.62917
G1 X106.191 Y7.912 E183.89492
G1 X106.764 Y7.912 E183.92872
G1 X91.587 Y23.088 E185.19447
G1 X92.160 Y23.088 E185.22827
G1 X107.337 Y7.912 E186.49402
G1 X107.910 Y7.912 E186.52782
G1 X92.734 Y23.088 E187.79357
G1 X93.307 Y23.088 E187.82737
G1 X108.483 Y7.912 E189.09312
G1 X109.056 Y7.912 E189.12692
G1 X93.880 Y23.088 E190.39268
G1 X94.453 Y23.088 E190.42648
G1 X109.630 Y7.912 E191.69223
G1 X110.203 Y7.912 E191.72603
G1 X95.026 Y23.088 E192.99178
G1 X95.599 Y23.088 E193.02558
G1 X110.776 Y7.912 E194.29133
G1 X111.349 Y7.912 E194.32513
G1 X96.172 Y23.088 E195.59088
G1 X96.746 Y23.088 E195.62468
G1 X111.922 Y7.912 E196.89043
G1 X112.495 Y7.912 E196.92424
G1 X97.319 Y23.088 E198.18999
G1 X97.892 Y23.088 E198.22379
G1 X113.069 Y7.912 E199.48954
G1 X113.642 Y7.912 E199.52334
G1 X98.465 Y23.088 E200.78909
G1 X99.038 Y23.088 E200.82289
G1 X114.215 Y7.912 E202.08864
G1 X114.788 Y7.912 E202.12244
G1 X99.611 Y23.088 E203.38819
G1 X100.185 Y23.088 E203.42200
G1 X115.361 Y7.912 E204.68775
G1 X115.934 Y7.912 E204.72155
G1 X100.758 Y23.088 E205.98730
G1 X101.331 Y23.088 E206.02110
G1 X116.507 Y7.912 E207.28685
G1 X117.081 Y7.912 E207.32065
G1 X101.904 Y23.088 E208.58640
G1 X102.477 Y23.088 E208.62020
G1 X117.654 Y7.912 E209.88595
G1 X118.227 Y7.912 E209.91976
G1 X103.050 Y23.088 E211.18551
G1 X103.623 Y23.088 E211.21931
G1 X118.800 Y7.912 E212.48506
G1 X119.373 Y7.912 E212.51886
G1 X104.197 Y23.088 E213.78461
G1 X104.770 Y23.088 E213.81841
G1 X119.946 Y7.912 E215.08416
G1 X120.520 Y7.912 E215.11796
G1 X105.343 Y23.088 E216.38371
G1 X105.916 Y23.088 E216.41752
G1 X121.093 Y7.912 E217.68327
G1 X121.666 Y7.912 E217.71707
G1 X106.489 Y23.088 E218.98282
G1 X107.062 Y23.088 E219.01662
G1 X122.239 Y7.912 E220.28237
G1 X122.812 Y7.912 E220.31617
G1 X107.636 Y23.088 E221.58192
G1 X108.209 Y23.088 E221.61572
G1 X123.385 Y7.912 E222.88147
G1 X123.958 Y7.912 E222.91528
G1 X108.782 Y23.088 E224.18103
G1 X109.355 Y23.088 E224.21483
G1 X124.532 Y7.912 E225.48058
G1 X125.105 Y7.912 E225.51438
G1 X109.928 Y23.088 E226.78013
G1 X110.501 Y23.088 E226.81393
G1 X125.678 Y7.912 E228.07968
G1 X126.251 Y7.912 E228.11348
G1 X111.074 Y23.088 E229.37924
G1 X111.648 Y23.088 E229.41304
G1 X126.824 Y7.912 E230.67879
G1 X127.397 Y7.912 E230.71259
G1 X112.221 Y23.088 E231.97834
G1 X112.794 Y23.088 E232.01214
G1 X127.971 Y7.912 E233.27789
G1 X128.544 Y7.912 E233.31169
G1 X113.367 Y23.088 E234.57744
G1 X113.940 Y23.088 E234.61124
G1 X129.117 Y7.912 E235.87699
G1 X129.690 Y7.912 E235.91080
G1 X114.513 Y23.088 E237.17655
G1 X115.087 Y23.088 E237.21035
G1 X130.263 Y7.912 E238.47610
G1 X130.836 Y7.912 E238.50990
G1 X115.660 Y23.088 E239.77565
G1 X116.233 Y23.088 E239.80945
G1 X131.409 Y7.912 E241.07520
G1 X131.983 Y7.912 E241.10900
G1 X116.806 Y23.088 E242.37476
G1 X117.379 Y23.088 E242.40856
G1 X132.556 Y7.912 E243.67431
G1 X133.129 Y7.912 E243.70811
G1 X117.952 Y23.088 E244.97386
G1 X118.525 Y23.088 E245.00766
G1 X133.702 Y7.912 E246.27341
G1 X134.275 Y7.912 E246.30721
G1 X119.099 Y23.088 E247.57296
G1 X119.672 Y23.088 E247.60676
G1 X134.848 Y7.912 E248.87252
G1 X135.422 Y7.912 E248.90632
G1 X120.245 Y23.088 E250.17207
G1 X120.818 Y23.088 E250.20587
G1 X135.995 Y7.912 E251.47162
G1 X136.568 Y7.912 E251.50542
G1 X121.391 Y23.088 E252.77117
G1 X121.964 Y23.088 E252.80497
G1 X137.141 Y7.912 E254.07072
G1 X137.714 Y7.912 E254.10452
G1 X122.538 Y23.088 E255.37028
G1 X123.111 Y23.088 E255.40408
G1 X138.287 Y7.912 E256.66983
G1 X138.860 Y7.912 E256.70363
G1 X123.684 Y23.088 E257.96938
G1 X124.257 Y23.088 E258.00318
G1 X139.434 Y7.912 E259.26893
G1 X140.007 Y7.912 E259.30273
G1 X124.830 Y23.088 E260.56848
G1 X125.403 Y23.088 E260.60229
G1 X140.580 Y7.912 E261.86804
G1 X141.153 Y7.912 E261.90184
G1 X125.976 Y23.088 E263.16759
G1 X126.550 Y23.088 E263.20139
G1 X141.726 Y7.912 E264.46714
G1 X142.299 Y7.912 E264.50094
G1 X127.123 Y23.088 E265.76669
G1 X127.696 Y23.088 E265.80049
G1 X142.873 Y7.912 E267.06624
G1 X143.446 Y7.912 E267.10005
G1 X128.269 Y23.088 E268.36580
G1 X128.842 Y23.088 E268.39960
G1 X144.019 Y7.912 E269.66535
G1 X144.592 Y7.912 E269.69915
G1 X129.415 Y23.088 E270.96490
G1 X129.989 Y23.088 E270.99870
G1 X145.165 Y7.912 E272.26445
G1 X145.738 Y7.912 E272.29825
G1 X130.562 Y23.088 E273.56400
G1 X131.135 Y23.088 E273.59781
G1 X146.311 Y7.912 E274.86356
G1 X146.885 Y7.912 E274.89736
G1 X131.708 Y23.088 E276.16311
G1 X132.281 Y23.088 E276.19691
G1 X147.458 Y7.912 E277.46266
G1 X148.031 Y7.912 E277.49646
G1 X132.854 Y23.088 E278.76221
G1 X133.427 Y23.088 E278.79602
G1 X148.604 Y7.912 E280.06177
G1 X149.177 Y7.912 E280.09557
G1 X134.001 Y23.088 E281.36132
G1 X134.574 Y23.088 E281.39512
G1 X149.750 Y7.912 E282.66087
G1 X150.324 Y7.912 E282.69467
G1 X135.147 Y23.088 E283.96042
G1 X135.720 Y23.088 E283.99422
G1 X150.897 Y7.912 E285.25998
G1 X151.470 Y7.912 E285.29378
G1 X136.293 Y23.088 E286.55953
G1 X136.866 Y23.088 E286.59333
G1 X152.043 Y7.912 E287.85908
